svg/icons/src/icon-cdm.svg

<?xml version="1.0" encoding="UTF-8"?>
<svg width="32px" height="32px" viewBox="0 0 32 32" version="1.1" xmlns="http://www.w3.org/2000/svg" xmlns:xlink="http://www.w3.org/1999/xlink">
    <!-- Generator: Sketch 52.5 (67469) - http://www.bohemiancoding.com/sketch -->
    <title>icon-cdm</title>
    <desc>Created with Sketch.</desc>
    <g id="icon-cdm" stroke="none" stroke-width="1" fill="none" fill-rule="evenodd">
        <path d="M1.2732,13.3404 C1.34432535,13.9441371 1.85568812,14.3993118 2.4636,14.4 C2.50956976,14.4023589 2.55563024,14.4023589 2.6016,14.4 C2.91780127,14.3635825 3.20658087,14.203034 3.40439887,13.9536798 C3.60221687,13.7043256 3.69286571,13.3865957 3.6564,13.0704 C3.6192198,12.7421059 3.60039052,12.4119926 3.6,12.0816 C3.59960426,8.79430724 5.49903529,5.80291094 8.47432384,4.40507264 C11.4496124,3.00723434 14.9647199,3.45479354 17.4948,5.5536 C17.8244847,5.82776561 18.2753915,5.9052204 18.6776682,5.75678789 C19.079945,5.60835539 19.3724762,5.25658602 19.4450682,4.83398789 C19.5176603,4.41138977 19.3592847,3.98216561 19.0296,3.708 C15.6077447,0.864922763 10.7997409,0.391463279 6.88905526,2.51248179 C2.97836959,4.63350029 0.752904211,8.92166631 1.2696,13.3404 L1.2732,13.3404 Z" id="Path" fill="#2333FF"></path>
        <path d="M24.6432,21.24 C24.3069405,20.9008732 23.8487728,20.7106903 23.3712,20.712 C23.164707,20.7117827 22.9597164,20.7470979 22.7652,20.8164 C22.6562262,20.85455 22.5350341,20.8270487 22.4532,20.7456 L20.7732,19.0656 C20.6677553,18.9592158 20.6565069,18.791513 20.7468,18.672 C21.4818316,17.7048954 22.0496876,16.6215073 22.4268,15.4668 C22.6116225,14.8439454 22.2671786,14.1871209 21.6497252,13.9849862 C21.0322717,13.7828514 20.3660895,14.1088288 20.1468,14.7204 C19.3844587,17.0378377 17.6621781,18.9154239 15.4190067,19.8745192 C13.1758353,20.8336145 10.6285093,20.7815507 8.4264,19.7316 C7.83832484,19.4902923 7.16409936,19.7494336 6.88903015,20.3224945 C6.61396094,20.8955553 6.83348973,21.5836987 7.3896,21.8916 C11.0748569,23.6496472 15.433314,23.2028278 18.6852,20.7336 C18.8045537,20.6427748 18.9726447,20.6540492 19.0788,20.76 L20.7588,22.44 C20.8404572,22.5222128 20.8679555,22.6438579 20.8296,22.7532 C20.595947,23.407656 20.7598887,24.138154 21.2508,24.63 L25.9056,29.2896 C26.8430481,30.2267168 28.3626832,30.2264481 29.2998,29.289 C30.2369168,28.3515519 30.2366481,26.8319168 29.2992,25.8948 L24.6432,21.24 Z" id="Path" fill="#2333FF"></path>
        <path d="M29.4,1.2096 L24.6,1.2096 C24.3575166,1.20965136 24.1389006,1.35565251 24.0459547,1.57961521 C23.9530089,1.80357791 24.0040067,2.06147036 24.1752,2.2332 L25.5516,3.6096 C25.6079525,3.66567733 25.6396343,3.74189986 25.6396343,3.8214 C25.6396343,3.90090014 25.6079525,3.97712267 25.5516,4.0332 L17.6316,11.9736 C17.5141081,12.0904539 17.3242919,12.0904539 17.2068,11.9736 L14.316,9.0816 C13.3788004,8.14468335 11.8595996,8.14468335 10.9224,9.0816 L1.56,18.4332 C1.2480521,18.7344894 1.12294488,19.1806535 1.23276341,19.6002088 C1.34258194,20.0197641 1.67023589,20.3474181 2.08979121,20.4572366 C2.50934653,20.5670551 2.95551064,20.4419479 3.2568,20.13 L12.4008,10.9908 C12.5185602,10.8745983 12.7078398,10.8745983 12.8256,10.9908 L15.72,13.8816 C16.6694004,14.7885768 18.1641996,14.7885768 19.1136,13.8816 L27.252,5.73 C27.3697602,5.61379826 27.5590398,5.61379826 27.6768,5.73 L28.9788,7.0332 C29.0913442,7.14609679 29.244189,7.20956623 29.4036,7.2096 C29.4822846,7.20992069 29.56023,7.19441322 29.6328,7.164 C29.8557781,7.07013151 30.000566,6.85153014 30,6.6096 L30,1.8096 C30,1.47822915 29.7313708,1.2096 29.4,1.2096 Z" id="Path" fill="#2333FF"></path>
    </g>
</svg>

<svg height="32" width="32" xmlns="http://www.w3.org/2000/svg"><g fill="#2333ff" fill-rule="evenodd"><path d="M1.273 13.34a1.2 1.2 0 0 0 1.19 1.06c.047.002.093.002.139 0a1.2 1.2 0 0 0 1.054-1.33 8.48 8.48 0 0 1 13.838-7.517 1.2 1.2 0 1 0 1.536-1.845A10.88 10.88 0 0 0 1.27 13.34zm23.37 7.9a1.8 1.8 0 0 0-1.878-.424.301.301 0 0 1-.312-.07l-1.68-1.68a.301.301 0 0 1-.026-.394 10.878 10.878 0 0 0 1.68-3.205 1.2 1.2 0 0 0-2.28-.747 8.491 8.491 0 0 1-11.72 5.012 1.2 1.2 0 0 0-1.037 2.16 10.91 10.91 0 0 0 11.295-1.158.3.3 0 0 1 .394.026l1.68 1.68a.302.302 0 0 1 .07.313 1.8 1.8 0 0 0 .422 1.877l4.655 4.66a2.4 2.4 0 1 0 3.393-3.395z"/><path d="M29.4 1.21h-4.8a.6.6 0 0 0-.425 1.023l1.377 1.377a.299.299 0 0 1 0 .423l-7.92 7.94a.301.301 0 0 1-.425 0l-2.891-2.891a2.4 2.4 0 0 0-3.394 0L1.56 18.433a1.2 1.2 0 1 0 1.697 1.697l9.144-9.14a.302.302 0 0 1 .425 0l2.894 2.892c.95.907 2.444.907 3.394 0l8.138-8.152a.302.302 0 0 1 .425 0l1.302 1.303a.6.6 0 0 0 .654.131A.6.6 0 0 0 30 6.61v-4.8a.6.6 0 0 0-.6-.6z"/></g></svg>
